Point/img/garant1.svg

<svg width="120" height="129" viewBox="0 0 120 129" fill="none" xmlns="http://www.w3.org/2000/svg">
<path fill-rule="evenodd" clip-rule="evenodd" d="M70.838 2.45555C56.3698 1.01031 29.2743 -3.27122 17.2203 4.65562C5.05884 12.6531 2.78466 28.0242 0.439934 42.1333C-1.66564 54.8033 4.29472 66.6164 7.57549 79.0472C11.1396 92.5515 3.74394 109.959 14.0893 119.596C24.8846 129.652 51.4374 129.055 66.2198 126.963C80.1663 124.99 84.661 115.012 96.2221 107.162C108.115 99.0869 111.859 109.349 116.162 95.8643C120.469 82.3694 122.03 57.6053 116.162 44.681C111.038 33.3946 108.638 20.5876 98.863 12.7359C88.7574 4.61845 83.8682 3.75717 70.838 2.45555Z" fill="#C6E1F6"/>
<path d="M76.6914 59.915H43.1389C40.4917 59.915 38.3457 62.061 38.3457 64.7083V83.8811C38.3457 86.5283 40.4917 88.6743 43.1389 88.6743H76.6914C79.3386 88.6743 81.4846 86.5283 81.4846 83.8811V64.7083C81.4846 62.061 79.3386 59.915 76.6914 59.915Z" stroke="#00325A" stroke-width="4.79321" stroke-linecap="round" stroke-linejoin="round"/>
<path d="M45.5355 50.3287C45.5355 48.4219 46.293 46.5931 47.6414 45.2448C48.9897 43.8964 50.8185 43.1389 52.7253 43.1389H67.105C69.0118 43.1389 70.8406 43.8964 72.189 45.2448C73.5373 46.5931 74.2948 48.4219 74.2948 50.3287V59.9152H45.5355V50.3287Z" stroke="#00325A" stroke-width="4.79321" stroke-linecap="round" stroke-linejoin="round"/>
</svg>

<svg width="120" height="129" fill="none" xmlns="http://www.w3.org/2000/svg"><path fill-rule="evenodd" clip-rule="evenodd" d="M70.838 2.456C56.37 1.01 29.274-3.271 17.22 4.656 5.06 12.653 2.785 28.024.44 42.133c-2.106 12.67 3.855 24.483 7.135 36.914 3.565 13.505-3.831 30.912 6.514 40.549 10.796 10.056 37.348 9.459 52.13 7.367 13.947-1.973 18.442-11.951 30.003-19.801 11.893-8.075 15.637 2.187 19.94-11.298 4.307-13.495 5.868-38.259 0-51.183-5.124-11.286-7.524-24.093-17.299-31.945-10.106-8.118-14.995-8.979-28.025-10.28z" fill="#C6E1F6"/><path d="M76.691 59.915H43.14a4.793 4.793 0 00-4.793 4.793v19.173a4.793 4.793 0 004.793 4.793h33.55a4.793 4.793 0 004.794-4.793V64.708a4.793 4.793 0 00-4.794-4.793z" stroke="#00325A" stroke-width="4.793" stroke-linecap="round" stroke-linejoin="round"/><path d="M45.535 50.329a7.19 7.19 0 017.19-7.19h14.38a7.19 7.19 0 017.19 7.19v9.586h-28.76V50.33z" stroke="#00325A" stroke-width="4.793" stroke-linecap="round" stroke-linejoin="round"/></svg>
